X: 21702
T: The HEAVING OF THE LEAD
C: Pearce.
Q: "Moderate."
%R: air, march
B: W. Hamilton "Universal Tune-Book" Vol. 2 Glasgow 1846 p.170 #2
S: http://s3-eu-west-1.amazonaws.com/itma.dl.printmaterial/book_pdfs/hamiltonvol2web.pdf
Z: 2016 John Chambers <jc:trillian.mit.edu>
M: C|
L: 1/8
K: G
% - - - - - - - - - - - - - - - - - - - - - - - - -
(G>A) |\
B2 B2 A2 (c>A) | G2 F2 G2 zD |\
(GA) (Bc) d3 d | (ef g)e d2 zd |\
g3 f e3 d | (^cB) (AG) F2 zA |\
d2 d2 (Be) (fg) | d2 ^c2 d2 zd |\
g3 g (gf2) f | (fe) e2 {e}d2 zd |
(dB2) e (cA2) d | (BG2) ^c d4 |\
"^Slow."G3G A2 G4 | B>B c2 HB3 B |\
(Ae dc) (cB) (dB) | (Ae dc) (cB) (dB) |\
(cB) (AB) (cB) cd | (ed) (ef) Hg4 |\
"^Slow."B3 c {B}A4 | G4 z2 |]
N: "By the deep nine." below the last two bars.
% - - - - - - - - - - - - - - - - - - - - - - - - -

%%sep 1 1 500
%%sep 1 1 500

